X: 21
T: JIGS: Old Grey Goose Set
T: Old Grey Goose
C: C: Trad.; S: Denis Murphy
C: Set Leaders: Anton, Oliushka
Z: Anton Zille ed., Oleg Naumov arr.; Bregolas at The Session
N: https://thesession.org/members/26966/sets/90908
R: Jig
M: 6/8
L: 1/8
Q: 3/8=116
K: Emin
E2 F|:"Em (G)"GBG "(D/F#)"FAF|"Em"GEE EGE|"D"DFA dBG|"(Bm)"~F3 DEF|
"Em"~G3 "D/F#"AGA|"G"BGB gfg|"Bm"edB BAF|1 "Em"GEE E2F:|2 "Em"GEE E2A||
|:"G"G2B dBG|GBd dBG|"Am"A3 ecA|"D"A/B/cA ecA|
"G"~G3 "Am"AGA|"D/B"BGB gfg|"D"edB BAF|1 "Em"GEE E2A:|2 "Em"GEE E2B||
|:"Em"e/f/ge edB|BAB "A"g2e|"D"fdd add|"D/F#"e/f/ge "D"edB|
"Em"gfg edB|~B3 "A"gfg|"D/B"edB BAF|1 "Em"GEE E2B:|2 "Em"GEE E2d||
|:"Em"BGB "A"AFA|"Em"GEE E2d|"Em"BGB dBG|"D"FAA D2d|
"Em"BGB "(D/F#)"AFA|"(G)"BAB gfg|"Bm"edB BAF|1 "Em"GEE E2d:|2 "Em"GEE E3||
|:"Em"gbg f/g/af|gee e2f|"Em"gbg "A"fag|"D"~f3 def|
"Em"gbg "D/F#"faf|"G"edB ~g3|"Bm"edB BAF|"Em"GEE E2e:||
|:"G"gdB BcA|GEE E2e|"G/B"gdB "A"dAG|"D"FAA DEF|
"Em"~G3 "D/F#"AGA|"G"BAB "D"gfg|"Bm"edB BAF|1 "Em"GEE E2e:|2 "Em"GEE E3||
T: Fanning's
K: Emin
D |: "G"GBd e/d/BG | "D/F#"~F3 AFD | "Em"EDE ~G3 | BAB "D"edB |
"G"GBB dBG | "D/F#"FEF AFA | "C"gfe "G/B"dBA |1 "Em"BEE "D"EED :|2 "Em"BEE E2e||
|: "Em (C)"geb geb | ~g3 "A"bag | "D"fda fda | "D/F#"fdf agf |
"Em (C)"ede gfg | "C"baf gfe | gfe "G/B"dBA |1 "Em"BEE E2e :|2 "Em"BEE "D"EED||

